src/images/circle3.svg

<svg width="831" height="835" viewBox="0 0 831 835" fill="none" xmlns="http://www.w3.org/2000/svg">
<g clip-path="url(#clip0_334_39)">
<path d="M415.182 834.267C644.481 834.267 830.364 648.36 830.364 419.031C830.364 189.703 644.481 3.79552 415.182 3.79548C185.883 3.79544 0.000211636 189.703 0.000171539 419.031C0.000131441 648.359 185.883 834.267 415.182 834.267Z" fill="url(#paint0_radial_334_39)"/>
<mask id="mask0_334_39" style="mask-type:luminance" maskUnits="userSpaceOnUse" x="284" y="62" width="468" height="469">
<path d="M518.159 530.294C647.237 530.294 751.876 425.642 751.876 296.546C751.876 167.451 647.237 62.7989 518.159 62.7989C389.08 62.7988 284.441 167.451 284.441 296.546C284.441 425.642 389.08 530.294 518.159 530.294Z" fill="white"/>
</mask>
<g mask="url(#mask0_334_39)">
<path d="M518.159 530.294C647.237 530.294 751.876 425.642 751.876 296.546C751.876 167.451 647.237 62.7989 518.159 62.7989C389.08 62.7988 284.441 167.451 284.441 296.546C284.441 425.642 389.08 530.294 518.159 530.294Z" fill="url(#paint1_linear_334_39)"/>
<path d="M543.684 546.621C694.61 546.621 816.96 424.256 816.96 273.311C816.96 122.365 694.61 7.41697e-05 543.684 4.7781e-05C392.759 2.13923e-05 270.409 122.365 270.409 273.311C270.409 424.256 392.759 546.621 543.684 546.621Z" fill="url(#paint2_radial_334_39)"/>
</g>
</g>
<defs>
<radialGradient id="paint0_radial_334_39" cx="0" cy="0" r="1" gradientUnits="userSpaceOnUse" gradientTransform="translate(415.182 419.031) scale(415.182 415.236)">
<stop offset="0.03" stop-color="#00DCCD"/>
<stop offset="0.06" stop-color="#00DCCD" stop-opacity="0.94"/>
<stop offset="0.2" stop-color="#00DCCD" stop-opacity="0.69"/>
<stop offset="0.34" stop-color="#00DCCD" stop-opacity="0.48"/>
<stop offset="0.47" stop-color="#00DCCD" stop-opacity="0.31"/>
<stop offset="0.61" stop-color="#00DCCD" stop-opacity="0.17"/>
<stop offset="0.74" stop-color="#00DCCD" stop-opacity="0.08"/>
<stop offset="0.88" stop-color="#00DCCD" stop-opacity="0.02"/>
<stop offset="1" stop-color="#00DCCD" stop-opacity="0"/>
</radialGradient>
<linearGradient id="paint1_linear_334_39" x1="352.91" y1="461.816" x2="683.45" y2="131.32" gradientUnits="userSpaceOnUse">
<stop offset="0.31" stop-color="#5449FF"/>
<stop offset="0.91" stop-color="#9603FF"/>
</linearGradient>
<radialGradient id="paint2_radial_334_39" cx="0" cy="0" r="1" gradientUnits="userSpaceOnUse" gradientTransform="translate(543.684 273.311) rotate(-90) scale(273.311 273.275)">
<stop offset="0.57" stop-color="#00C3BB" stop-opacity="0"/>
<stop offset="0.61" stop-color="#00C4BC" stop-opacity="0.02"/>
<stop offset="0.66" stop-color="#00C8BF" stop-opacity="0.09"/>
<stop offset="0.72" stop-color="#00CEC4" stop-opacity="0.19"/>
<stop offset="0.78" stop-color="#00D7CB" stop-opacity="0.34"/>
<stop offset="0.85" stop-color="#00E3D4" stop-opacity="0.54"/>
<stop offset="0.92" stop-color="#00F0DF" stop-opacity="0.77"/>
<stop offset="0.98" stop-color="#00FFEB"/>
</radialGradient>
<clipPath id="clip0_334_39">
<rect width="830.364" height="834.239" fill="white" transform="translate(0.000244141)"/>
</clipPath>
</defs>
</svg>

<svg width="831" height="835" fill="none" xmlns="http://www.w3.org/2000/svg"><g clip-path="url(#a)"><path d="M415.182 834.267c229.299 0 415.182-185.907 415.182-415.236 0-229.328-185.883-415.235-415.182-415.236C185.883 3.795 0 189.703 0 419.031s185.883 415.236 415.182 415.236Z" fill="url(#b)"/><mask id="c" style="mask-type:luminance" maskUnits="userSpaceOnUse" x="284" y="62" width="468" height="469"><path d="M518.159 530.294c129.078 0 233.717-104.652 233.717-233.748 0-129.095-104.639-233.747-233.717-233.747-129.079 0-233.718 104.652-233.718 233.747 0 129.096 104.639 233.748 233.718 233.748Z" fill="#fff"/></mask><g mask="url(#c)"><path d="M518.159 530.294c129.078 0 233.717-104.652 233.717-233.748 0-129.095-104.639-233.747-233.717-233.747-129.079 0-233.718 104.652-233.718 233.747 0 129.096 104.639 233.748 233.718 233.748Z" fill="url(#d)"/><path d="M543.684 546.621c150.926 0 273.276-122.365 273.276-273.31C816.96 122.365 694.61.001 543.684 0 392.759 0 270.409 122.365 270.409 273.311c0 150.945 122.35 273.31 273.275 273.31Z" fill="url(#e)"/></g></g><defs><radialGradient id="b" cx="0" cy="0" r="1" gradientUnits="userSpaceOnUse" gradientTransform="matrix(415.182 0 0 415.236 415.182 419.031)"><stop offset=".03" stop-color="#00DCCD"/><stop offset=".06" stop-color="#00DCCD" stop-opacity=".94"/><stop offset=".2" stop-color="#00DCCD" stop-opacity=".69"/><stop offset=".34" stop-color="#00DCCD" stop-opacity=".48"/><stop offset=".47" stop-color="#00DCCD" stop-opacity=".31"/><stop offset=".61" stop-color="#00DCCD" stop-opacity=".17"/><stop offset=".74" stop-color="#00DCCD" stop-opacity=".08"/><stop offset=".88" stop-color="#00DCCD" stop-opacity=".02"/><stop offset="1" stop-color="#00DCCD" stop-opacity="0"/></radialGradient><radialGradient id="e" cx="0" cy="0" r="1" gradientUnits="userSpaceOnUse" gradientTransform="matrix(0 -273.311 273.275 0 543.684 273.311)"><stop offset=".57" stop-color="#00C3BB" stop-opacity="0"/><stop offset=".61" stop-color="#00C4BC" stop-opacity=".02"/><stop offset=".66" stop-color="#00C8BF" stop-opacity=".09"/><stop offset=".72" stop-color="#00CEC4" stop-opacity=".19"/><stop offset=".78" stop-color="#00D7CB" stop-opacity=".34"/><stop offset=".85" stop-color="#00E3D4" stop-opacity=".54"/><stop offset=".92" stop-color="#00F0DF" stop-opacity=".77"/><stop offset=".98" stop-color="#00FFEB"/></radialGradient><linearGradient id="d" x1="352.91" y1="461.816" x2="683.45" y2="131.32" gradientUnits="userSpaceOnUse"><stop offset=".31" stop-color="#5449FF"/><stop offset=".91" stop-color="#9603FF"/></linearGradient><clipPath id="a"><path fill="#fff" d="M0 0h830.364v834.239H0z"/></clipPath></defs></svg>
